X:1
T:Tranmere, CMD
T:Tranmere, CMD
T:William Hayes, 1774
T:Public Domain Courtesy of the Cyber Hymnal™
C:William Hayes, 1774
Z:Public Domain
Z:Courtesy of the Cyber Hymnal™
%%score ( 1 2 ) ( 3 4 )
L:1/8
Q:1/4=112
M:4/4
K:G
V:1 treble 
V:2 treble 
V:3 bass 
V:4 bass 
V:1
 [DG]2 | [DB]2 [Ad]2 [Gc]2 [GB]2 | [Ge]2 (dc) [GB]2 [Gd]2 | [Ge]2 [Gd]2 c2 [GB]2 | [FA]6 [FA]2 | %5
 [Ad]2 [FA]2 [GB]3 [DB] | [Ee]2 [^Gd]2 [A^c]2 [Ec]2 | [Fd]2 [EG]2 [DF]2 [^CE]2 | D6 [DA]2 | %9
 [Dd]2 [=FB]2 [E^G]3 [EG] | [EA]2 [DB]2 [Cc]2 [DA]2 | [Dd]2 [Fd]2 [Gd]2 [Ac]2 | [GB]6 [Gd]2 | %13
 [Ge]2 [Gd]2 [Ge]3 [Gd] | c2 [GB]2 [FA]2 [Fc]2 | [GB]2 (AG) [DG]2 [DF]2 | [DG]6 |] %17
V:2
 x2 | x8 | x2 F2 x4 | x4 (EF) x2 | x8 | x8 | x8 | x8 | D6 x2 | x8 | x8 | x8 | x8 | x8 | (EF) x6 | %15
 x2 E2 x4 | x6 |] %17
V:3
 [G,,B,]2 | G,2 (A,B,) [E,C]2 [D,D]2 | [C,A,]2 [D,D]2 [G,,D]2 [G,B,]2 | %3
 [C,C]2 [G,B,]2 [A,C]2 [G,D]2 | [D,D]6 [D,D]2 | [F,D]2 [D,D]2 [G,D]3 [G,B,] | %6
 [^G,B,]2 [E,E]2 [A,E]2 A,2 | [F,A,]2 [G,B,]2 A,2 (A,G,) | [D,F,]6 [D,=F,]2 | %9
 [=F,A,]2 [D,D]2 [E,B,]3 [D,B,] | [C,A,]2 [B,,^G,]2 [A,,A,]2 [D,F,]2 | %11
 [B,,G,]2 [D,A,]2 [E,G,]2 [F,D]2 | [G,D]6 [G,B,]2 | [E,B,]2 [G,B,]2 C3 [B,D] | %14
 A,2 (B,C) [D,D]2 [A,,C]2 | [B,,D]2 (CB,) [D,A,]2 [D,A,]2 | [G,,B,]6 |] %17
V:4
 x2 | G,2 F,2 x4 | x8 | x8 | x8 | x8 | x6 (A,=G,) | x4 A,2 A,,2 | x8 | x8 | x8 | x8 | x8 | %13
 x4 C3 x | A,2 G,2 x4 | x2 C,2 x4 | x6 |] %17

